www/source/img/svg/clock.svg

<svg width="70" height="70" viewBox="0 0 70 70" fill="none" xmlns="http://www.w3.org/2000/svg">
<g clip-path="url(#clip0)">
<path d="M37.2531 4.45813C36.5034 4.40277 35.7518 4.37504 35 4.375V0C35.8598 0.000419246 36.7194 0.0325244 37.5769 0.09625L37.2531 4.45813ZM46.0206 6.42688C44.6182 5.88571 43.1779 5.44848 41.7113 5.11875L42.6694 0.84875C44.345 1.225 45.9944 1.72375 47.5956 2.345L46.0206 6.42688ZM52.0144 9.53313C51.3889 9.11597 50.7482 8.72195 50.0937 8.35188L52.2506 4.54563C53.7465 5.39322 55.178 6.34954 56.5338 7.40688L53.8431 10.8588C53.25 10.396 52.64 9.95529 52.0144 9.5375V9.53313ZM60.0381 17.3644C59.1727 16.1349 58.2179 14.9709 57.1812 13.8819L60.3487 10.8631C61.53 12.11 62.6238 13.4444 63.6169 14.8444L60.0381 17.3644ZM63.2931 23.2794C63.006 22.5858 62.6937 21.9028 62.3569 21.2319L66.2638 19.2631C67.0364 20.7991 67.6944 22.3901 68.2325 24.0231L64.0763 25.3925C63.8411 24.6788 63.5799 23.9739 63.2931 23.2794ZM65.6119 34.2475C65.5765 32.744 65.4303 31.2451 65.1744 29.7631L69.4837 29.0194C69.7769 30.7081 69.9475 32.4231 69.9912 34.1381L65.6163 34.2475H65.6119ZM65.0388 40.9763C65.1831 40.2325 65.3012 39.4931 65.3931 38.745L69.7375 39.2831C69.5274 40.99 69.191 42.679 68.7313 44.3363L64.5138 43.1681C64.715 42.4463 64.89 41.7156 65.0388 40.9763ZM60.8737 51.3844C61.6787 50.1156 62.3875 48.7856 63 47.4119L66.9988 49.1838C66.2987 50.7588 65.4894 52.2725 64.5706 53.725L60.8737 51.3844ZM56.6562 56.6563C57.19 56.1225 57.7019 55.5713 58.1875 55.0025L61.5037 57.8594C60.9422 58.5105 60.357 59.1409 59.7494 59.7494L56.6562 56.6563Z" fill="#FF6D1C"/>
<path d="M35.001 4.375C29.9648 4.37536 25.0065 5.6177 20.5651 7.99198C16.1238 10.3663 12.3365 13.7992 9.53872 17.9867C6.74096 22.1742 5.01907 26.9871 4.52557 31.999C4.03207 37.0109 4.78219 42.0672 6.7095 46.72C8.6368 51.3728 11.6818 55.4784 15.5748 58.6734C19.4678 61.8683 24.0886 64.0538 29.0279 65.0364C33.9673 66.019 39.0728 65.7684 43.8921 64.3066C48.7115 62.8449 53.0959 60.2172 56.6572 56.6562L59.7503 59.7494C55.6804 63.8215 50.6689 66.827 45.1599 68.4994C39.6509 70.1718 33.8143 70.4595 28.1675 69.3371C22.5207 68.2147 17.2378 65.7168 12.7871 62.0647C8.3364 58.4127 4.85519 53.7192 2.65193 48.4001C0.448681 43.0811 -0.408589 37.3007 0.156083 31.5712C0.720755 25.8416 2.68993 20.3398 5.88914 15.5532C9.08835 10.7666 13.4188 6.84298 18.4968 4.13001C23.5749 1.41704 29.2437 -0.0015257 35.001 1.23138e-06V4.375Z" fill="#FF6D1C"/>
<path d="M32.8125 13.125C33.3927 13.125 33.9491 13.3555 34.3593 13.7657C34.7695 14.1759 35 14.7323 35 15.3125V38.1063L49.21 46.2262C49.6991 46.5213 50.0534 46.9959 50.1971 47.5488C50.3409 48.1016 50.2627 48.6887 49.9793 49.1846C49.6959 49.6806 49.2298 50.046 48.6806 50.2028C48.1313 50.3596 47.5425 50.2953 47.04 50.0238L31.7275 41.2738C31.3927 41.0825 31.1144 40.8062 30.9208 40.4727C30.7272 40.1393 30.6251 39.7606 30.625 39.375V15.3125C30.625 14.7323 30.8555 14.1759 31.2657 13.7657C31.6759 13.3555 32.2323 13.125 32.8125 13.125Z" fill="#FF6D1C"/>
</g>
<defs>
<clipPath id="clip0">
<rect width="70" height="70" fill="white"/>
</clipPath>
</defs>
</svg>

<svg width="70" height="70" fill="none" xmlns="http://www.w3.org/2000/svg"><g clip-path="url(#clip0)" fill="#FF6D1C"><path d="M37.253 4.458A30.618 30.618 0 0035 4.375V0c.86 0 1.72.033 2.577.096l-.324 4.362zm8.768 1.969a30.635 30.635 0 00-4.31-1.308l.958-4.27a34.58 34.58 0 014.927 1.496L46.02 6.427zm5.993 3.106a30.656 30.656 0 00-1.92-1.181l2.157-3.806a35.11 35.11 0 014.283 2.86l-2.69 3.453a30.571 30.571 0 00-1.83-1.322v-.004zm8.024 7.831a30.569 30.569 0 00-2.857-3.482l3.168-3.019a36.5 36.5 0 013.268 3.981l-3.579 2.52zm3.255 5.915c-.287-.693-.6-1.376-.936-2.047l3.907-1.969a34.9 34.9 0 011.969 4.76l-4.157 1.37a30.758 30.758 0 00-.783-2.114zm2.319 10.969a30.586 30.586 0 00-.438-4.485l4.31-.744c.293 1.69.464 3.404.507 5.12l-4.375.108h-.004zm-.573 6.728a32.63 32.63 0 00.354-2.231l4.344.538a34.82 34.82 0 01-1.006 5.053l-4.217-1.168c.201-.722.376-1.452.525-2.192zm-4.165 10.408A30.911 30.911 0 0063 47.412l3.999 1.772a35.317 35.317 0 01-2.428 4.541l-3.697-2.34zm-4.218 5.272a28.64 28.64 0 001.532-1.654l3.316 2.857a35.325 35.325 0 01-1.755 1.89l-3.093-3.093z"/><path d="M35.001 4.375a30.625 30.625 0 1021.656 52.281l3.093 3.093A35.005 35.005 0 1135.001 0v4.375z"/><path d="M32.813 13.125A2.188 2.188 0 0135 15.313v22.793l14.21 8.12a2.187 2.187 0 01-2.17 3.798l-15.313-8.75a2.188 2.188 0 01-1.102-1.899V15.312a2.188 2.188 0 012.188-2.187z"/></g><defs><clipPath id="clip0"><path fill="#fff" d="M0 0h70v70H0z"/></clipPath></defs></svg>
